;FLAVOR:Marlin
;TIME:16346
;Filament used: 11.91m
;Layer height: 0.2
;MINX:16.642
;MINY:150.563
;MINZ:0.2
;MAXX:144.764
;MAXY:276.163
;MAXZ:7
;Generated with Cura_SteamEngine 5.2.1
M140 S50
M105
M190 S50
M104 S200
M105
M109 S200
M82 ;absolute extrusion mode
M201 X500.00 Y500.00 Z100.00 E5000.00 ;Setup machine max acceleration
M203 X500.00 Y500.00 Z10.00 E50.00 ;Setup machine max feedrate
M204 P500.00 R1000.00 T500.00 ;Setup Print/Retract/Travel acceleration
M205 X8.00 Y8.00 Z0.40 E5.00 ;Setup Jerk
M220 S100 ;Reset Feedrate
M221 S100 ;Reset Flowrate

G28 ;Home
G29 ;Auto bed Level

G92 E0 ;Reset Extruder
G1 Z2.0 F3000 ;Move Z Axis up
G1 X10.1 Y20 Z0.28 F5000.0 ;Move to start position
G1 X10.1 Y200.0 Z0.28 F1500.0 E15 ;Draw the first line
G1 X10.4 Y200.0 Z0.28 F5000.0 ;Move to side a little
G1 X10.4 Y20 Z0.28 F1500.0 E30 ;Draw the second line
G92 E0 ;Reset Extruder
G1 Z2.0 F3000 ;Move Z Axis up

G92 E0
G92 E0
G1 F2700 E-5
;LAYER_COUNT:35
;LAYER:0
M107
G0 F6000 X23.605 Y150.607 Z0.2
;TYPE:SKIRT
G1 F2700 E0
G1 F1200 X24.434 Y150.563 E0.02761
G1 X131.966 Y150.563 E3.60414
G1 X133.047 Y150.589 E3.6401
G1 X134.115 Y150.69 E3.67579
G1 X135.053 Y150.845 E3.70741
G1 X135.824 Y151.013 E3.73365
G1 X136.294 Y151.157 E3.75
G1 X136.77 Y151.319 E3.76672
G1 X137.683 Y151.696 E3.79958
G1 X138.137 Y151.918 E3.81639
G1 X138.943 Y152.373 E3.84717
G1 X139.375 Y152.652 E3.86428
G1 X140.125 Y153.202 E3.89521
G1 X140.531 Y153.539 E3.91276
G1 X141.206 Y154.171 E3.94351
G1 X141.599 Y154.585 E3.9625
G1 X142.232 Y155.342 E3.99532
G1 X142.587 Y155.826 E4.01528
G1 X143.187 Y156.782 E4.05282
G1 X143.48 Y157.334 E4.07361
G1 X143.932 Y158.356 E4.11078
G1 X144.124 Y158.891 E4.12968
G1 X144.4 Y159.849 E4.16284
G1 X144.509 Y160.344 E4.1797
G1 X144.64 Y161.13 E4.2062
G1 X144.693 Y161.591 E4.22164
G1 X144.742 Y162.287 E4.24484
G1 X144.764 Y163.168 E4.27416
G1 X144.764 Y263.559 E7.61317
G1 X144.742 Y264.436 E7.64235
G1 X144.639 Y265.518 E7.6785
G1 X144.483 Y266.457 E7.71016
G1 X144.314 Y267.229 E7.73645
G1 X144.172 Y267.692 E7.75255
G1 X144.01 Y268.168 E7.76928
G1 X143.633 Y269.081 E7.80213
G1 X143.411 Y269.535 E7.81894
G1 X142.952 Y270.348 E7.84999
G1 X142.673 Y270.779 E7.86707
G1 X142.134 Y271.513 E7.89736
G1 X141.798 Y271.919 E7.91488
G1 X141.159 Y272.603 E7.94602
G1 X140.744 Y272.997 E7.96505
G1 X139.987 Y273.63 E7.99787
G1 X139.503 Y273.985 E8.01784
G1 X138.547 Y274.585 E8.05538
G1 X137.995 Y274.878 E8.07616
G1 X136.961 Y275.334 E8.11375
G1 X136.426 Y275.525 E8.13264
G1 X135.474 Y275.798 E8.16558
G1 X134.977 Y275.907 E8.1825
G1 X134.199 Y276.037 E8.20874
G1 X133.739 Y276.09 E8.22414
G1 X133.041 Y276.139 E8.24741
G1 X132.161 Y276.161 E8.27669
G1 X24.434 Y276.163 E11.85971
G1 X23.645 Y276.123 E11.88598
G1 X22.865 Y276.004 E11.91223
G1 X22.1 Y275.806 E11.93851
G1 X21.36 Y275.532 E11.96475
G1 X20.651 Y275.184 E11.99102
G1 X19.98 Y274.766 E12.01732
G1 X19.356 Y274.283 E12.04356
G1 X18.783 Y273.74 E12.06982
G1 X18.268 Y273.141 E12.09609
G1 X17.817 Y272.493 E12.12235
G1 X17.433 Y271.802 E12.14864
G1 X17.121 Y271.077 E12.17489
G1 X16.884 Y270.324 E12.20115
G1 X16.725 Y269.55 E12.22743
G1 X16.644 Y268.765 E12.25368
G1 X16.644 Y267.975 E12.27996
G1 X16.723 Y267.189 E12.30623
G1 X16.881 Y266.416 E12.33247
G1 X17.117 Y265.662 E12.35875
G1 X17.427 Y264.936 E12.385
G1 X17.81 Y264.245 E12.41128
G1 X18.26 Y263.596 E12.43755
G1 X18.774 Y262.996 E12.46383
G1 X19.345 Y262.452 E12.49006
G1 X19.969 Y261.967 E12.51634
G1 X20.639 Y261.549 E12.54261
G1 X21.347 Y261.2 E12.56886
G1 X22.087 Y260.924 E12.59513
G1 X22.851 Y260.725 E12.62139
G1 X23.676 Y260.6 E12.64914
G1 X26.503 Y260.324 E12.74362
G1 X29.292 Y259.888 E12.83751
G1 X30.569 Y259.634 E12.88081
G1 X32.272 Y259.233 E12.939
G1 X33.76 Y258.816 E12.9904
G1 X35.017 Y258.448 E13.03396
G1 X37.717 Y257.506 E13.12907
G1 X40.304 Y256.427 E13.2223
G1 X42.949 Y255.136 E13.32019
G1 X45.522 Y253.673 E13.41864
G1 X46.392 Y253.122 E13.45289
G1 X47.128 Y252.643 E13.4821
G1 X47.907 Y252.116 E13.51338
G1 X50.257 Y250.374 E13.61067
G1 X52.487 Y248.494 E13.70768
G1 X54.666 Y246.405 E13.80808
G1 X56.65 Y244.25 E13.90551
G1 X58.505 Y241.968 E14.00332
G1 X60.199 Y239.598 E14.10021
G1 X61.762 Y237.092 E14.19845
G1 X63.111 Y234.606 E14.29252
G1 X64.36 Y231.921 E14.39101
G1 X65.431 Y229.185 E14.48874
G1 X66.327 Y226.396 E14.58617
G1 X67.052 Y223.538 E14.68424
G1 X67.593 Y220.671 E14.78128
G1 X67.957 Y217.755 E14.87902
G1 X68.139 Y214.828 E14.97656
G1 X68.141 Y211.943 E15.07251
G1 X67.962 Y209.027 E15.16968
G1 X67.601 Y206.11 E15.26744
G1 X67.066 Y203.239 E15.36458
G1 X66.343 Y200.385 E15.4625
G1 X65.453 Y197.604 E15.55962
G1 X64.357 Y194.799 E15.65978
G1 X63.11 Y192.121 E15.75803
G1 X61.762 Y189.635 E15.85209
G1 X60.199 Y187.129 E15.95032
G1 X58.498 Y184.749 E16.04762
G1 X56.651 Y182.477 E16.14501
G1 X54.681 Y180.336 E16.24178
G1 X52.479 Y178.226 E16.34321
G1 X50.257 Y176.353 E16.43987
G1 X47.934 Y174.629 E16.53609
G1 X47.08 Y174.053 E16.57035
G1 X46.422 Y173.623 E16.59649
G1 X45.513 Y173.047 E16.63228
G1 X42.938 Y171.588 E16.73072
G1 X40.375 Y170.332 E16.82565
G1 X37.789 Y169.25 E16.91889
G1 X37.377 Y169.098 E16.93349
G1 X35.236 Y168.351 E17.00891
G1 X34.668 Y168.17 E17.02874
G1 X32.06 Y167.438 E17.11883
G1 X31.545 Y167.316 E17.13644
G1 X29.348 Y166.85 E17.21114
G1 X26.503 Y166.404 E17.30692
G1 X23.672 Y166.126 E17.40153
G1 X22.891 Y166.009 E17.42779
G1 X22.126 Y165.814 E17.45405
G1 X21.384 Y165.542 E17.48034
G1 X20.674 Y165.197 E17.50659
G1 X20.002 Y164.782 E17.53286
G1 X19.376 Y164.301 E17.55912
G1 X18.801 Y163.759 E17.5854
G1 X18.285 Y163.162 E17.61165
G1 X17.831 Y162.515 E17.63793
G1 X17.445 Y161.826 E17.6642
G1 X17.131 Y161.102 E17.69045
G1 X16.891 Y160.349 E17.71674
G1 X16.729 Y159.576 E17.743
G1 X16.646 Y158.791 E17.76926
G1 X16.642 Y158.002 E17.7955
G1 X16.719 Y157.216 E17.82177
G1 X16.874 Y156.441 E17.84806
G1 X17.107 Y155.687 E17.8743
G1 X17.416 Y154.96 E17.90058
G1 X17.796 Y154.268 E17.92684
G1 X18.244 Y153.617 E17.95312
G1 X18.755 Y153.016 E17.97936
G1 X19.325 Y152.469 E18.00563
G1 X19.947 Y151.983 E18.03189
G1 X20.615 Y151.562 E18.05815
G1 X21.323 Y151.21 E18.08445
G1 X22.062 Y150.932 E18.11071
G1 X22.825 Y150.731 E18.13695
G1 X23.605 Y150.607 E18.16322
G0 F6000 X23.459 Y151.027
G1 F1200 X24.434 Y150.963 E18.19572
G1 X131.966 Y150.963 E21.77225
G1 X133.037 Y150.989 E21.80788
G1 X134.049 Y151.085 E21.84169
G1 X134.987 Y151.24 E21.87331
G1 X135.739 Y151.405 E21.89892
G1 X136.165 Y151.536 E21.91374
G1 X136.641 Y151.698 E21.93047
G1 X137.508 Y152.055 E21.96165
G1 X137.962 Y152.277 E21.97846
G1 X138.726 Y152.709 E22.00765
G1 X139.158 Y152.988 E22.02476
G1 X139.869 Y153.51 E22.05409
G1 X140.275 Y153.847 E22.07164
G1 X140.916 Y154.446 E22.10082
G1 X141.309 Y154.86 E22.11981
G1 X141.909 Y155.578 E22.15093
G1 X142.264 Y156.062 E22.17089
G1 X142.833 Y156.97 E22.20653
G1 X143.126 Y157.522 E22.22732
G1 X143.555 Y158.491 E22.26257
G1 X143.747 Y159.026 E22.28147
G1 X144.009 Y159.935 E22.31293
G1 X144.118 Y160.43 E22.32979
G1 X144.243 Y161.176 E22.35495
G1 X144.296 Y161.637 E22.37038
G1 X144.342 Y162.297 E22.39239
G1 X144.364 Y163.178 E22.4217
G1 X144.364 Y263.549 E25.76005
G1 X144.342 Y264.426 E25.78923
G1 X144.244 Y265.453 E25.82355
G1 X144.088 Y266.392 E25.85521
G1 X143.923 Y267.143 E25.88078
G1 X143.793 Y267.563 E25.8954
G1 X143.631 Y268.039 E25.91213
G1 X143.274 Y268.906 E25.94331
G1 X143.052 Y269.36 E25.96012
G1 X142.616 Y270.13 E25.98955
G1 X142.337 Y270.561 E26.00663
G1 X141.826 Y271.258 E26.03537
G1 X141.49 Y271.664 E26.0529
G1 X140.884 Y272.313 E26.08243
G1 X140.469 Y272.707 E26.10147
G1 X139.751 Y273.307 E26.13259
G1 X139.267 Y273.662 E26.15255
G1 X138.359 Y274.231 E26.18819
G1 X137.807 Y274.524 E26.20898
G1 X136.826 Y274.957 E26.24464
G1 X136.291 Y275.148 E26.26354
G1 X135.388 Y275.407 E26.29478
G1 X134.891 Y275.516 E26.3117
G1 X134.153 Y275.639 E26.33659
G1 X133.693 Y275.692 E26.35199
G1 X133.031 Y275.739 E26.37406
G1 X132.151 Y275.761 E26.40334
G1 X24.434 Y275.763 E29.98602
G1 X23.666 Y275.723 E30.0116
G1 X22.906 Y275.604 E30.03719
G1 X22.163 Y275.406 E30.06276
G1 X21.444 Y275.132 E30.08835
G1 X20.758 Y274.785 E30.11392
G1 X20.111 Y274.369 E30.13951
G1 X19.511 Y273.888 E30.16508
G1 X18.964 Y273.347 E30.19067
G1 X18.476 Y272.752 E30.21627
G1 X18.053 Y272.11 E30.24184
G1 X17.698 Y271.427 E30.26744
G1 X17.417 Y270.712 E30.29299
G1 X17.211 Y269.97 E30.3186
G1 X17.083 Y269.212 E30.34417
G1 X17.034 Y268.444 E30.36977
G1 X17.066 Y267.676 E30.39533
G1 X17.177 Y266.915 E30.42091
G1 X17.367 Y266.169 E30.44652
G1 X17.633 Y265.448 E30.47208
G1 X17.972 Y264.757 E30.49768
G1 X18.381 Y264.106 E30.52325
G1 X18.856 Y263.501 E30.54883
G1 X19.39 Y262.948 E30.5744
G1 X19.98 Y262.454 E30.59999
G1 X20.617 Y262.023 E30.62557
G1 X21.296 Y261.661 E30.65117
G1 X22.008 Y261.372 E30.67673
G1 X22.747 Y261.158 E30.70231
G1 X23.715 Y260.998 E30.73495
G1 X26.551 Y260.721 E30.82972
G1 X29.353 Y260.283 E30.92405
G1 X30.661 Y260.023 E30.9684
G1 X32.369 Y259.621 E31.02676
G1 X33.928 Y259.184 E31.08062
G1 X35.142 Y258.829 E31.12268
G1 X37.828 Y257.892 E31.2173
G1 X40.481 Y256.786 E31.3129
G1 X43.148 Y255.483 E31.41163
G1 X45.747 Y254.005 E31.51107
G1 X46.604 Y253.461 E31.54483
G1 X47.31 Y253.002 E31.57284
G1 X48.152 Y252.433 E31.60664
G1 X50.516 Y250.679 E31.70454
G1 X52.747 Y248.798 E31.8016
G1 X54.963 Y246.674 E31.9037
G1 X56.95 Y244.516 E32.00126
G1 X58.814 Y242.223 E32.09955
G1 X60.544 Y239.802 E32.19852
G1 X62.099 Y237.309 E32.29624
G1 X63.475 Y234.774 E32.39218
G1 X64.723 Y232.09 E32.49062
G1 X65.805 Y229.327 E32.58932
G1 X66.711 Y226.504 E32.68793
G1 X67.445 Y223.613 E32.78713
G1 X67.988 Y220.731 E32.88468
G1 X68.355 Y217.796 E32.98305
G1 X68.539 Y214.837 E33.08166
G1 X68.541 Y211.934 E33.17822
G1 X68.36 Y208.986 E33.27645
G1 X67.995 Y206.034 E33.37538
G1 X67.462 Y203.179 E33.47198
G1 X66.723 Y200.262 E33.57207
G1 X65.828 Y197.462 E33.66984
G1 X64.726 Y194.643 E33.77051
G1 X63.474 Y191.952 E33.86922
G1 X62.099 Y189.419 E33.96508
G1 X60.544 Y186.925 E34.06284
G1 X58.814 Y184.504 E34.1618
G1 X56.957 Y182.22 E34.25971
G1 X54.954 Y180.044 E34.35808
G1 X52.747 Y177.929 E34.45975
G1 X50.516 Y176.048 E34.55681
G1 X48.152 Y174.294 E34.65471
G1 X47.3 Y173.72 E34.68888
G1 X46.61 Y173.269 E34.7163
G1 X45.71 Y172.698 E34.75175
G1 X43.126 Y171.235 E34.85051
G1 X40.586 Y169.989 E34.94461
G1 X37.929 Y168.875 E35.04043
G1 X37.575 Y168.744 E35.05299
G1 X35.321 Y167.957 E35.1324
G1 X34.806 Y167.794 E35.15036
G1 X32.163 Y167.052 E35.24167
G1 X31.594 Y166.917 E35.26112
G1 X29.436 Y166.459 E35.33449
G1 X26.553 Y166.007 E35.43155
G1 X23.711 Y165.728 E35.52653
G1 X22.95 Y165.613 E35.55213
G1 X22.206 Y165.42 E35.57769
G1 X21.485 Y165.15 E35.6033
G1 X20.797 Y164.807 E35.62887
G1 X20.147 Y164.395 E35.65447
G1 X19.545 Y163.918 E35.68001
G1 X18.994 Y163.38 E35.70563
G1 X18.503 Y162.788 E35.73121
G1 X18.076 Y162.149 E35.75677
G1 X17.717 Y161.468 E35.78237
G1 X17.431 Y160.754 E35.80796
G1 X17.221 Y160.014 E35.83354
G1 X17.088 Y159.257 E35.8591
G1 X17.035 Y158.49 E35.88467
G1 X17.062 Y157.721 E35.91027
G1 X17.168 Y156.959 E35.93586
G1 X17.353 Y156.212 E35.96145
G1 X17.615 Y155.489 E35.98703
G1 X17.95 Y154.797 E36.0126
G1 X18.355 Y154.143 E36.03819
G1 X18.826 Y153.535 E36.06377
G1 X19.357 Y152.979 E36.08934
G1 X19.944 Y152.481 E36.11494
G1 X20.579 Y152.047 E36.14052
G1 X21.255 Y151.681 E36.16609
G1 X21.966 Y151.387 E36.19168
G1 X22.703 Y151.168 E36.21725
G1 X23.459 Y151.027 E36.24283
G0 F6000 X23.34 Y151.449
G1 F1200 X24.434 Y151.363 E36.27933
G1 X132.15 Y151.365 E39.86198
G1 X133.027 Y151.388 E39.89116
G1 X133.984 Y151.48 E39.92313
G1 X134.922 Y151.635 E39.95475
G1 X135.653 Y151.796 E39.97965
G1 X136.036 Y151.914 E39.99298
G1 X136.512 Y152.076 E40.0097
G1 X137.332 Y152.415 E40.03922
G1 X137.786 Y152.637 E40.05602
G1 X138.509 Y153.045 E40.08364
G1 X138.941 Y153.324 E40.10074
G1 X139.614 Y153.818 E40.12851
G1 X140.02 Y154.155 E40.14606
G1 X140.626 Y154.722 E40.17366
G1 X141.019 Y155.136 E40.19265
G1 X141.586 Y155.815 E40.22207
G1 X141.941 Y156.299 E40.24203
G1 X142.48 Y157.157 E40.27573
G1 X142.773 Y157.709 E40.29652
G1 X143.179 Y158.627 E40.3299
G1 X143.371 Y159.162 E40.34881
G1 X143.618 Y160.021 E40.37854
G1 X143.727 Y160.516 E40.3954
G1 X143.845 Y161.221 E40.41917
G1 X143.898 Y161.682 E40.4346
G1 X143.942 Y162.307 E40.45544
G1 X143.966 Y163.363 E40.49057
G1 X143.964 Y263.539 E43.82244
G1 X143.942 Y264.416 E43.85162
G1 X143.849 Y265.387 E43.88406
G1 X143.693 Y266.326 E43.91572
G1 X143.531 Y267.057 E43.94063
G1 X143.415 Y267.434 E43.95375
G1 X143.253 Y267.91 E43.97047
G1 X142.914 Y268.73 E43.99998
G1 X142.692 Y269.184 E44.01679
G1 X142.28 Y269.913 E44.04464
G1 X142.001 Y270.344 E44.06172
G1 X141.518 Y271.003 E44.08889
G1 X141.182 Y271.409 E44.10642
G1 X140.609 Y272.023 E44.13435
G1 X140.194 Y272.417 E44.15339
G1 X139.514 Y272.984 E44.18283
G1 X139.03 Y273.339 E44.2028
G1 X138.172 Y273.878 E44.2365
G1 X137.62 Y274.171 E44.25728
G1 X136.692 Y274.58 E44.29101
G1 X136.157 Y274.771 E44.30991
G1 X135.303 Y275.016 E44.33946
G1 X134.806 Y275.125 E44.35638
G1 X134.107 Y275.242 E44.37995
G1 X133.647 Y275.295 E44.39535
G1 X133.021 Y275.339 E44.41623
G1 X131.966 Y275.363 E44.45133
G1 X24.434 Y275.363 E48.02785
G1 X23.687 Y275.323 E48.05274
G1 X22.949 Y275.204 E48.0776
G1 X22.227 Y275.006 E48.1025
G1 X21.531 Y274.733 E48.12737
G1 X20.868 Y274.386 E48.15225
G1 X20.245 Y273.971 E48.17715
G1 X19.671 Y273.492 E48.20202
G1 X19.15 Y272.955 E48.2269
G1 X18.691 Y272.365 E48.25177
G1 X18.296 Y271.729 E48.27667
G1 X17.972 Y271.055 E48.30154
G1 X17.722 Y270.35 E48.32642
G1 X17.548 Y269.622 E48.35131
G1 X17.453 Y268.88 E48.37619
G1 X17.438 Y268.132 E48.40108
G1 X17.502 Y267.387 E48.42595
G1 X17.646 Y266.653 E48.45083
G1 X17.867 Y265.938 E48.47572
G1 X18.164 Y265.251 E48.50061
G1 X18.531 Y264.6 E48.52547
G1 X18.967 Y263.992 E48.55035
G1 X19.464 Y263.433 E48.57523
G1 X20.019 Y262.931 E48.60012
G1 X20.624 Y262.491 E48.625
G1 X21.272 Y262.118 E48.64987
G1 X21.957 Y261.816 E48.67477
G1 X22.669 Y261.589 E48.69962
G1 X23.754 Y261.396 E48.73628
G1 X26.596 Y261.119 E48.83125
G1 X29.42 Y260.678 E48.92632
G1 X30.774 Y260.408 E48.97224
G1 X32.472 Y260.008 E49.03026
G1 X33.97 Y259.589 E49.08199
G1 X35.265 Y259.209 E49.12688
G1 X37.974 Y258.264 E49.22231
G1 X40.625 Y257.16 E49.31782
G1 X43.352 Y255.828 E49.41876
G1 X45.947 Y254.352 E49.51806
G1 X46.847 Y253.781 E49.55351
G1 X47.506 Y253.352 E49.57966
G1 X48.382 Y252.76 E49.61483
G1 X50.774 Y250.984 E49.71392
G1 X53.023 Y249.088 E49.81175
G1 X55.243 Y246.959 E49.91406
G1 X57.255 Y244.774 E50.01285
G1 X59.138 Y242.458 E50.11213
G1 X60.869 Y240.036 E50.21114
G1 X62.451 Y237.501 E50.31053
G1 X63.832 Y234.956 E50.40683
G1 X65.093 Y232.245 E50.50628
G1 X66.181 Y229.464 E50.6056
G1 X67.096 Y226.618 E50.70503
G1 X67.835 Y223.704 E50.80502
G1 X68.384 Y220.79 E50.90365
G1 X68.753 Y217.839 E51.00256
G1 X68.939 Y214.846 E51.1023
G1 X68.941 Y211.927 E51.19939
G1 X68.758 Y208.945 E51.29875
G1 X68.391 Y205.978 E51.39819
G1 X67.851 Y203.082 E51.49617
G1 X67.11 Y200.157 E51.59653
G1 X66.205 Y197.326 E51.69538
G1 X65.098 Y194.496 E51.79646
G1 X63.827 Y191.765 E51.89664
G1 X62.447 Y189.22 E51.99293
G1 X60.869 Y186.691 E52.09208
G1 X59.144 Y184.277 E52.19076
G1 X57.248 Y181.945 E52.29073
G1 X55.243 Y179.766 E52.38921
G1 X53.023 Y177.639 E52.49147
G1 X50.774 Y175.743 E52.58931
G1 X48.382 Y173.966 E52.68842
G1 X47.537 Y173.397 E52.7223
G1 X46.85 Y172.947 E52.74962
G1 X45.886 Y172.337 E52.78756
G1 X43.313 Y170.882 E52.88587
G1 X40.762 Y169.63 E52.98039
G1 X38.08 Y168.505 E53.07712
G1 X37.664 Y168.351 E53.09187
G1 X35.469 Y167.584 E53.16921
G1 X34.918 Y167.41 E53.18843
G1 X32.267 Y166.666 E53.28001
G1 X31.682 Y166.527 E53.3
G1 X29.488 Y166.062 E53.3746
G1 X26.602 Y165.609 E53.47176
G1 X23.75 Y165.329 E53.56708
G1 X23.01 Y165.217 E53.59197
G1 X22.287 Y165.026 E53.61684
G1 X21.588 Y164.759 E53.64173
G1 X20.922 Y164.418 E53.66661
G1 X20.296 Y164.009 E53.69149
G1 X19.717 Y163.535 E53.71637
G1 X19.192 Y163.002 E53.74126
G1 X18.727 Y162.416 E53.76614
G1 X18.327 Y161.784 E53.79101
G1 X17.997 Y161.113 E53.81588
G1 X17.74 Y160.41 E53.84078
G1 X17.56 Y159.684 E53.86566
