;FLAVOR:Marlin
;TIME:13590
;Filament used: 13.0525m
;Layer height: 0.2
;MINX:22.527
;MINY:19.667
;MINZ:0.2
;MAXX:100.619
;MAXY:97.742
;MAXZ:28.4
;Generated with Cura_SteamEngine 5.2.1
M140 S50
M105
M190 S50
M104 S200
M105
M109 S200
M82 ;absolute extrusion mode
M201 X500.00 Y500.00 Z100.00 E5000.00 ;Setup machine max acceleration
M203 X500.00 Y500.00 Z10.00 E50.00 ;Setup machine max feedrate
M204 P500.00 R1000.00 T500.00 ;Setup Print/Retract/Travel acceleration
M205 X8.00 Y8.00 Z0.40 E5.00 ;Setup Jerk
M220 S100 ;Reset Feedrate
M221 S100 ;Reset Flowrate

G28 ;Home
G29 ;Auto bed Level

G92 E0 ;Reset Extruder
G1 Z2.0 F3000 ;Move Z Axis up
G1 X10.1 Y20 Z0.28 F5000.0 ;Move to start position
G1 X10.1 Y200.0 Z0.28 F1500.0 E15 ;Draw the first line
G1 X10.4 Y200.0 Z0.28 F5000.0 ;Move to side a little
G1 X10.4 Y20 Z0.28 F1500.0 E30 ;Draw the second line
G92 E0 ;Reset Extruder
G1 Z2.0 F3000 ;Move Z Axis up

G92 E0
G92 E0
G1 F2700 E-5
;LAYER_COUNT:143
;LAYER:0
M107
G0 F6000 X32.872 Y32.23 Z0.2
;TYPE:SKIRT
G1 F2700 E0
G1 F1200 X34.189 Y30.871 E0.06294
G1 X34.536 Y30.534 E0.07903
G1 X36.027 Y29.175 E0.14613
G1 X36.399 Y28.856 E0.16243
G1 X37.877 Y27.67 E0.22546
G1 X38.251 Y27.388 E0.24104
G1 X39.796 Y26.294 E0.304
G1 X40.195 Y26.03 E0.31992
G1 X41.802 Y25.034 E0.3828
G1 X42.22 Y24.792 E0.39886
G1 X43.998 Y23.837 E0.46599
G1 X44.437 Y23.619 E0.48229
G1 X46.157 Y22.83 E0.54523
G1 X46.59 Y22.647 E0.56087
G1 X48.357 Y21.962 E0.6239
G1 X48.811 Y21.802 E0.63991
G1 X50.615 Y21.228 E0.70287
G1 X51.076 Y21.097 E0.71881
G1 X53.031 Y20.605 E0.78587
G1 X53.505 Y20.501 E0.80201
G1 X55.366 Y20.154 E0.86497
G1 X55.837 Y20.081 E0.88082
G1 X57.717 Y19.848 E0.94383
G1 X58.208 Y19.803 E0.96023
G1 X60.22 Y19.682 E1.02727
G1 X60.684 Y19.668 E1.04271
G1 X62.453 Y19.667 E1.10155
G1 X62.929 Y19.681 E1.11738
G1 X64.942 Y19.803 E1.18446
G1 X65.426 Y19.848 E1.20063
G1 X67.304 Y20.08 E1.26356
G1 X67.769 Y20.152 E1.27921
G1 X69.631 Y20.497 E1.3422
G1 X70.121 Y20.604 E1.35888
G1 X72.076 Y21.098 E1.42595
G1 X72.533 Y21.228 E1.44175
G1 X74.338 Y21.803 E1.50476
G1 X74.787 Y21.962 E1.5206
G1 X76.553 Y22.646 E1.58359
G1 X76.988 Y22.829 E1.59929
G1 X78.708 Y23.618 E1.66223
G1 X79.147 Y23.837 E1.67854
G1 X80.923 Y24.791 E1.7456
G1 X81.342 Y25.032 E1.76167
G1 X82.952 Y26.03 E1.82467
G1 X83.349 Y26.294 E1.84053
G1 X84.893 Y27.387 E1.90345
G1 X85.267 Y27.669 E1.91903
G1 X86.744 Y28.854 E1.98201
G1 X87.117 Y29.173 E1.99834
G1 X88.608 Y30.532 E2.06543
G1 X88.957 Y30.871 E2.08162
G1 X90.274 Y32.231 E2.14458
G1 X90.591 Y32.578 E2.16022
G1 X91.823 Y34.014 E2.22315
G1 X92.133 Y34.399 E2.23959
G1 X93.346 Y36.009 E2.30663
G1 X93.624 Y36.404 E2.3227
G1 X94.669 Y37.986 E2.38576
G1 X94.916 Y38.386 E2.4014
G1 X95.862 Y40.025 E2.46434
G1 X96.09 Y40.449 E2.48035
G1 X96.933 Y42.143 E2.54328
G1 X97.136 Y42.584 E2.55943
G1 X97.921 Y44.443 E2.62655
G1 X98.094 Y44.891 E2.64252
G1 X98.722 Y46.678 E2.70552
G1 X98.868 Y47.139 E2.7216
G1 X99.383 Y48.958 E2.78448
G1 X99.496 Y49.406 E2.79985
G1 X99.903 Y51.255 E2.86282
G1 X99.994 Y51.741 E2.87926
G1 X100.302 Y53.735 E2.94637
G1 X100.361 Y54.218 E2.96256
G1 X100.533 Y56.104 E3.02554
G1 X100.561 Y56.573 E3.04117
G1 X100.619 Y58.465 E3.10413
G1 X100.619 Y58.939 E3.11989
G1 X100.562 Y60.83 E3.18282
G1 X100.532 Y61.322 E3.19921
G1 X100.344 Y63.33 E3.26629
G1 X100.284 Y63.809 E3.28235
G1 X99.991 Y65.681 E3.34537
G1 X99.904 Y66.146 E3.3611
G1 X99.498 Y67.997 E3.42413
G1 X99.383 Y68.456 E3.43987
G1 X98.867 Y70.274 E3.50272
G1 X98.719 Y70.739 E3.51895
G1 X98.048 Y72.641 E3.58604
G1 X97.87 Y73.098 E3.60235
G1 X97.129 Y74.841 E3.66534
G1 X96.934 Y75.264 E3.68083
G1 X96.09 Y76.96 E3.74384
G1 X95.862 Y77.384 E3.75985
G1 X94.916 Y79.023 E3.8228
G1 X94.671 Y79.421 E3.83834
G1 X93.628 Y81.001 E3.90131
G1 X93.348 Y81.398 E3.91747
G1 X92.135 Y83.008 E3.98451
G1 X91.826 Y83.391 E4.00088
G1 X90.593 Y84.829 E4.06388
G1 X90.273 Y85.18 E4.07968
G1 X88.957 Y86.538 E4.14258
G1 X88.61 Y86.875 E4.15866
G1 X87.119 Y88.234 E4.22576
G1 X86.749 Y88.551 E4.24197
G1 X85.271 Y89.738 E4.30502
G1 X84.895 Y90.022 E4.32069
G1 X83.35 Y91.116 E4.38366
G1 X82.948 Y91.382 E4.39969
G1 X81.341 Y92.377 E4.46255
G1 X80.926 Y92.617 E4.4785
G1 X79.148 Y93.572 E4.54563
G1 X78.709 Y93.79 E4.56193
G1 X76.989 Y94.579 E4.62487
G1 X76.556 Y94.762 E4.6405
G1 X74.789 Y95.447 E4.70353
G1 X74.339 Y95.606 E4.71941
G1 X72.535 Y96.181 E4.78238
G1 X72.07 Y96.313 E4.79846
G1 X70.115 Y96.805 E4.86551
G1 X69.636 Y96.91 E4.88182
G1 X67.774 Y97.256 E4.94481
G1 X67.309 Y97.328 E4.96046
G1 X65.43 Y97.561 E5.02344
G1 X64.938 Y97.606 E5.03987
G1 X62.926 Y97.727 E5.10691
G1 X62.462 Y97.741 E5.12235
G1 X60.693 Y97.742 E5.18119
G1 X60.217 Y97.728 E5.19703
G1 X58.204 Y97.606 E5.2641
G1 X57.72 Y97.561 E5.28027
G1 X55.841 Y97.329 E5.34324
G1 X55.375 Y97.257 E5.35892
G1 X53.514 Y96.912 E5.42187
G1 X53.029 Y96.806 E5.43839
G1 X51.074 Y96.313 E5.50544
G1 X50.61 Y96.181 E5.52149
G1 X48.805 Y95.605 E5.58451
G1 X48.359 Y95.447 E5.60024
G1 X46.593 Y94.763 E5.66323
G1 X46.158 Y94.58 E5.67893
G1 X44.438 Y93.791 E5.74187
G1 X43.999 Y93.573 E5.75817
G1 X42.221 Y92.618 E5.8253
G1 X41.805 Y92.377 E5.84129
G1 X40.197 Y91.381 E5.9042
G1 X39.795 Y91.114 E5.92025
G1 X38.251 Y90.02 E5.98319
G1 X37.881 Y89.742 E5.99858
G1 X36.403 Y88.557 E6.06159
G1 X36.026 Y88.234 E6.0781
G1 X34.535 Y86.874 E6.14522
G1 X34.192 Y86.541 E6.16112
G1 X32.874 Y85.182 E6.22409
G1 X32.549 Y84.826 E6.24012
G1 X31.318 Y83.389 E6.30306
G1 X31.012 Y83.009 E6.31928
G1 X29.799 Y81.399 E6.38633
G1 X29.519 Y81.002 E6.40249
G1 X28.476 Y79.422 E6.46546
G1 X28.231 Y79.025 E6.48097
G1 X27.284 Y77.385 E6.54396
G1 X27.057 Y76.962 E6.55993
G1 X26.213 Y75.267 E6.6229
G1 X26.015 Y74.838 E6.63862
G1 X25.275 Y73.095 E6.7016
G1 X25.102 Y72.649 E6.71751
G1 X24.429 Y70.747 E6.78462
G1 X24.276 Y70.266 E6.8014
G1 X23.762 Y68.447 E6.86427
G1 X23.65 Y68.002 E6.87953
G1 X23.243 Y66.152 E6.94254
G1 X23.152 Y65.667 E6.95895
G1 X22.844 Y63.673 E7.02606
G1 X22.785 Y63.19 E7.04224
G1 X22.613 Y61.304 E7.10523
G1 X22.585 Y60.835 E7.12086
G1 X22.527 Y58.945 E7.18375
G1 X22.527 Y58.471 E7.19951
G1 X22.584 Y56.579 E7.26247
G1 X22.612 Y56.106 E7.27823
G1 X22.784 Y54.22 E7.34122
G1 X22.843 Y53.737 E7.3574
G1 X23.151 Y51.743 E7.42451
G1 X23.242 Y51.259 E7.44089
G1 X23.649 Y49.408 E7.50393
G1 X23.762 Y48.957 E7.51939
G1 X24.277 Y47.139 E7.58224
G1 X24.428 Y46.667 E7.59872
G1 X25.1 Y44.765 E7.66581
G1 X25.274 Y44.315 E7.68186
G1 X26.014 Y42.572 E7.74484
G1 X26.213 Y42.142 E7.7606
G1 X27.058 Y40.446 E7.82362
G1 X27.285 Y40.023 E7.83959
G1 X28.231 Y38.385 E7.9025
G1 X28.474 Y37.991 E7.9179
G1 X29.517 Y36.41 E7.98089
G1 X29.798 Y36.011 E7.99713
G1 X31.011 Y34.401 E8.06417
G1 X31.319 Y34.018 E8.08052
G1 X32.551 Y32.581 E8.14347
G1 X32.872 Y32.23 E8.15929
G0 F6000 X33.159 Y32.508
G1 F1200 X34.476 Y31.149 E8.22224
G1 X34.805 Y30.83 E8.23748
G1 X36.296 Y29.471 E8.30458
G1 X36.65 Y29.168 E8.32008
G1 X38.128 Y27.982 E8.3831
G1 X38.483 Y27.715 E8.39788
G1 X40.028 Y26.621 E8.46084
G1 X40.406 Y26.37 E8.47594
G1 X42.013 Y25.374 E8.53882
G1 X42.409 Y25.145 E8.55403
G1 X44.187 Y24.19 E8.62116
G1 X44.604 Y23.983 E8.63664
G1 X46.324 Y23.194 E8.69958
G1 X46.734 Y23.02 E8.7144
G1 X48.501 Y22.335 E8.77743
G1 X48.932 Y22.183 E8.79263
G1 X50.736 Y21.609 E8.8556
G1 X51.174 Y21.485 E8.87074
G1 X53.129 Y20.993 E8.93779
G1 X53.579 Y20.894 E8.95311
G1 X55.44 Y20.547 E9.01608
G1 X55.886 Y20.478 E9.03109
G1 X57.766 Y20.245 E9.09409
G1 X58.232 Y20.202 E9.10966
G1 X60.244 Y20.081 E9.1767
G1 X60.684 Y20.068 E9.19134
G1 X62.453 Y20.067 E9.25018
G1 X62.905 Y20.081 E9.26522
G1 X64.918 Y20.203 E9.33229
G1 X65.377 Y20.245 E9.34762
G1 X67.255 Y20.477 E9.41056
G1 X67.696 Y20.545 E9.4254
G1 X69.558 Y20.89 E9.48839
G1 X70.023 Y20.992 E9.50422
G1 X71.978 Y21.486 E9.57129
G1 X72.411 Y21.609 E9.58626
G1 X74.216 Y22.184 E9.64927
G1 X74.643 Y22.335 E9.66433
G1 X76.409 Y23.019 E9.72732
G1 X76.821 Y23.193 E9.74219
G1 X78.541 Y23.982 E9.80513
G1 X78.958 Y24.189 E9.82062
G1 X80.734 Y25.143 E9.88767
G1 X81.131 Y25.372 E9.90291
G1 X82.741 Y26.37 E9.96592
G1 X83.118 Y26.62 E9.98096
G1 X84.662 Y27.713 E10.04388
G1 X85.017 Y27.981 E10.05867
G1 X86.494 Y29.166 E10.12166
G1 X86.848 Y29.469 E10.13715
G1 X88.339 Y30.828 E10.20425
G1 X88.67 Y31.149 E10.21959
G1 X89.987 Y32.509 E10.28256
G1 X90.287 Y32.839 E10.29739
G1 X91.519 Y34.275 E10.36032
G1 X91.813 Y34.64 E10.37591
G1 X93.026 Y36.25 E10.44295
G1 X93.291 Y36.624 E10.4582
G1 X94.336 Y38.206 E10.52126
G1 X94.57 Y38.586 E10.5361
G1 X95.516 Y40.225 E10.59905
G1 X95.732 Y40.627 E10.61422
G1 X96.575 Y42.321 E10.67716
G1 X96.767 Y42.739 E10.69246
G1 X97.552 Y44.598 E10.75957
G1 X97.716 Y45.024 E10.77476
G1 X98.344 Y46.811 E10.83776
G1 X98.483 Y47.248 E10.85301
G1 X98.998 Y49.067 E10.91589
G1 X99.105 Y49.492 E10.93046
G1 X99.512 Y51.341 E10.99343
G1 X99.598 Y51.802 E11.00903
G1 X99.906 Y53.796 E11.07614
G1 X99.962 Y54.254 E11.09148
G1 X100.134 Y56.14 E11.15447
G1 X100.162 Y56.585 E11.1693
G1 X100.22 Y58.477 E11.23226
G1 X100.22 Y58.927 E11.24723
G1 X100.163 Y60.818 E11.31015
G1 X100.134 Y61.285 E11.32571
G1 X99.946 Y63.293 E11.39279
G1 X99.889 Y63.747 E11.40801
G1 X99.596 Y65.619 E11.47103
G1 X99.513 Y66.06 E11.48596
G1 X99.107 Y67.911 E11.54899
G1 X98.998 Y68.347 E11.56393
G1 X98.482 Y70.165 E11.62679
G1 X98.341 Y70.606 E11.64219
G1 X97.67 Y72.508 E11.70927
G1 X97.502 Y72.941 E11.72472
G1 X96.761 Y74.684 E11.78771
G1 X96.576 Y75.086 E11.80243
G1 X95.732 Y76.782 E11.86544
G1 X95.516 Y77.184 E11.88062
G1 X94.57 Y78.823 E11.94356
G1 X94.337 Y79.201 E11.95833
G1 X93.294 Y80.781 E12.0213
G1 X93.028 Y81.157 E12.03661
G1 X91.815 Y82.767 E12.10366
G1 X91.523 Y83.131 E12.11918
G1 X90.29 Y84.569 E12.18218
G1 X89.986 Y84.902 E12.19718
G1 X88.67 Y86.26 E12.26008
G1 X88.341 Y86.579 E12.27532
G1 X86.85 Y87.938 E12.34242
G1 X86.499 Y88.239 E12.3578
G1 X85.021 Y89.426 E12.42085
G1 X84.663 Y89.695 E12.43574
G1 X83.118 Y90.789 E12.49871
G1 X82.738 Y91.042 E12.51389
G1 X81.131 Y92.037 E12.57675
G1 X80.737 Y92.264 E12.59188
G1 X78.959 Y93.219 E12.659
G1 X78.542 Y93.426 E12.67449
G1 X76.822 Y94.215 E12.73743
G1 X76.412 Y94.389 E12.75224
G1 X74.645 Y95.074 E12.81527
G1 X74.217 Y95.225 E12.83037
G1 X72.413 Y95.8 E12.89335
G1 X71.972 Y95.925 E12.90859
G1 X70.017 Y96.417 E12.97564
G1 X69.563 Y96.516 E12.9911
G1 X67.701 Y96.862 E13.05409
G1 X67.26 Y96.931 E13.06893
G1 X65.381 Y97.164 E13.13191
G1 X64.914 Y97.207 E13.14751
G1 X62.902 Y97.328 E13.21455
G1 X62.462 Y97.341 E13.22919
G1 X60.693 Y97.342 E13.28802
G1 X60.241 Y97.328 E13.30307
G1 X58.228 Y97.206 E13.37014
G1 X57.769 Y97.164 E13.38547
G1 X55.89 Y96.932 E13.44844
G1 X55.448 Y96.864 E13.46332
G1 X53.587 Y96.519 E13.52627
G1 X53.127 Y96.418 E13.54193
G1 X51.172 Y95.925 E13.60899
G1 X50.731 Y95.8 E13.62424
G1 X48.926 Y95.224 E13.68725
G1 X48.503 Y95.074 E13.70218
G1 X46.737 Y94.39 E13.76517
G1 X46.325 Y94.216 E13.78004
G1 X44.605 Y93.427 E13.84298
G1 X44.188 Y93.22 E13.85847
G1 X42.41 Y92.265 E13.9256
G1 X42.015 Y92.037 E13.94076
G1 X40.407 Y91.041 E14.00368
G1 X40.026 Y90.788 E14.01889
G1 X38.482 Y89.694 E14.08182
G1 X38.131 Y89.429 E14.09645
G1 X36.653 Y88.244 E14.15946
G1 X36.295 Y87.938 E14.17512
G1 X34.804 Y86.578 E14.24225
G1 X34.479 Y86.263 E14.2573
G1 X33.161 Y84.904 E14.32027
G1 X32.853 Y84.566 E14.33548
G1 X31.622 Y83.129 E14.39841
G1 X31.332 Y82.768 E14.41381
G1 X30.119 Y81.158 E14.48086
G1 X29.853 Y80.782 E14.49618
G1 X28.81 Y79.202 E14.55914
G1 X28.578 Y78.825 E14.57387
G1 X27.631 Y77.185 E14.63685
G1 X27.415 Y76.783 E14.65203
G1 X26.571 Y75.088 E14.71501
G1 X26.383 Y74.682 E14.72989
G1 X25.643 Y72.939 E14.79287
G1 X25.479 Y72.515 E14.80799
G1 X24.806 Y70.613 E14.8751
G1 X24.661 Y70.157 E14.89101
G1 X24.147 Y68.338 E14.95388
G1 X24.041 Y67.916 E14.96835
G1 X23.634 Y66.066 E15.03136
G1 X23.548 Y65.606 E15.04692
G1 X23.24 Y63.612 E15.11403
G1 X23.184 Y63.154 E15.12938
G1 X23.012 Y61.268 E15.19236
G1 X22.984 Y60.823 E15.20719
G1 X22.926 Y58.933 E15.27009
G1 X22.926 Y58.483 E15.28505
G1 X22.983 Y56.591 E15.34801
G1 X23.011 Y56.142 E15.36297
G1 X23.183 Y54.256 E15.42596
G1 X23.239 Y53.798 E15.44131
G1 X23.547 Y51.804 E15.50841
G1 X23.633 Y51.345 E15.52395
G1 X24.04 Y49.494 E15.58698
G1 X24.147 Y49.066 E15.60166
G1 X24.662 Y47.248 E15.6645
G1 X24.805 Y46.8 E15.68014
G1 X25.477 Y44.898 E15.74724
G1 X25.642 Y44.471 E15.76246
G1 X26.382 Y42.728 E15.82544
G1 X26.571 Y42.32 E15.8404
G1 X27.416 Y40.624 E15.90342
G1 X27.631 Y40.223 E15.91855
G1 X28.577 Y38.585 E15.98147
G1 X28.808 Y38.211 E15.99609
G1 X29.851 Y36.63 E16.05908
G1 X30.118 Y36.252 E16.07448
G1 X31.331 Y34.642 E16.14152
G1 X31.623 Y34.278 E16.15704
G1 X32.855 Y32.841 E16.22
G1 X33.159 Y32.508 E16.235
G0 F6000 X33.446 Y32.787
G1 F1200 X34.763 Y31.428 E16.29794
G1 X35.075 Y31.126 E16.31238
G1 X36.566 Y29.767 E16.37948
G1 X36.9 Y29.48 E16.39413
G1 X38.378 Y28.294 E16.45716
G1 X38.714 Y28.041 E16.47114
G1 X40.259 Y26.947 E16.53411
G1 X40.616 Y26.71 E16.54836
G1 X42.223 Y25.714 E16.61124
G1 X42.599 Y25.497 E16.62568
G1 X44.377 Y24.542 E16.69281
G1 X44.77 Y24.346 E16.70742
G1 X46.49 Y23.557 E16.77036
G1 X46.879 Y23.393 E16.7844
G1 X48.646 Y22.708 E16.84743
G1 X49.054 Y22.565 E16.86181
G1 X50.858 Y21.991 E16.92477
G1 X51.272 Y21.873 E16.93909
G1 X53.227 Y21.381 E17.00614
G1 X53.652 Y21.288 E17.02061
G1 X55.513 Y20.941 E17.08358
G1 X55.935 Y20.875 E17.09778
G1 X57.815 Y20.642 E17.16079
G1 X58.256 Y20.602 E17.17552
G1 X60.268 Y20.481 E17.24256
G1 X60.684 Y20.468 E17.2564
G1 X62.453 Y20.467 E17.31524
G1 X62.88 Y20.48 E17.32945
G1 X64.893 Y20.602 E17.39652
G1 X65.328 Y20.642 E17.41105
G1 X67.206 Y20.874 E17.47399
G1 X67.623 Y20.938 E17.48802
G1 X69.485 Y21.283 E17.55101
G1 X69.925 Y21.379 E17.56599
G1 X71.88 Y21.873 E17.63305
G1 X72.29 Y21.99 E17.64723
G1 X74.095 Y22.565 E17.71024
G1 X74.498 Y22.708 E17.72446
G1 X76.264 Y23.392 E17.78745
G1 X76.655 Y23.556 E17.80156
G1 X78.375 Y24.345 E17.86449
G1 X78.768 Y24.541 E17.8791
G1 X80.544 Y25.495 E17.94615
G1 X80.92 Y25.712 E17.96059
G1 X82.53 Y26.71 E18.0236
G1 X82.886 Y26.947 E18.03782
G1 X84.43 Y28.04 E18.10074
G1 X84.767 Y28.293 E18.11475
G1 X86.244 Y29.478 E18.17774
G1 X86.578 Y29.765 E18.19238
G1 X88.069 Y31.124 E18.25948
G1 X88.383 Y31.427 E18.274
G1 X89.7 Y32.787 E18.33696
G1 X89.984 Y33.099 E18.351
G1 X91.216 Y34.535 E18.41393
G1 X91.494 Y34.881 E18.42869
G1 X92.707 Y36.491 E18.49573
G1 X92.957 Y36.845 E18.51015
G1 X94.002 Y38.427 E18.57321
G1 X94.224 Y38.786 E18.58725
G1 X95.17 Y40.425 E18.65019
G1 X95.374 Y40.805 E18.66453
G1 X96.217 Y42.499 E18.72747
G1 X96.399 Y42.895 E18.74196
G1 X97.184 Y44.754 E18.80908
G1 X97.339 Y45.156 E18.82341
G1 X97.967 Y46.943 E18.88641
G1 X98.098 Y47.357 E18.90085
G1 X98.613 Y49.176 E18.96373
G1 X98.714 Y49.578 E18.97752
G1 X99.121 Y51.427 E19.04049
G1 X99.203 Y51.863 E19.05524
G1 X99.511 Y53.857 E19.12235
G1 X99.564 Y54.29 E19.13686
G1 X99.736 Y56.176 E19.19985
G1 X99.762 Y56.598 E19.21391
G1 X99.82 Y58.49 E19.27687
G1 X99.82 Y58.915 E19.291
G1 X99.763 Y60.806 E19.35393
G1 X99.736 Y61.248 E19.36866
G1 X99.548 Y63.256 E19.43573
G1 X99.494 Y63.685 E19.45012
G1 X99.201 Y65.557 E19.51314
G1 X99.122 Y65.975 E19.52729
G1 X98.716 Y67.826 E19.59031
G1 X98.613 Y68.237 E19.60441
G1 X98.097 Y70.055 E19.66726
G1 X97.964 Y70.473 E19.68185
G1 X97.293 Y72.375 E19.74893
G1 X97.134 Y72.785 E19.76356
G1 X96.393 Y74.528 E19.82655
G1 X96.218 Y74.908 E19.84047
G1 X95.374 Y76.604 E19.90348
G1 X95.17 Y76.984 E19.91782
G1 X94.224 Y78.623 E19.98076
G1 X94.003 Y78.98 E19.99473
G1 X92.96 Y80.56 E20.0577
G1 X92.709 Y80.916 E20.07218
G1 X91.496 Y82.526 E20.13923
G1 X91.219 Y82.87 E20.15392
G1 X89.986 Y84.308 E20.21692
G1 X89.699 Y84.623 E20.2311
G1 X88.383 Y85.981 E20.29399
G1 X88.071 Y86.283 E20.30843
G1 X86.58 Y87.642 E20.37553
G1 X86.248 Y87.927 E20.39009
G1 X84.77 Y89.114 E20.45314
G1 X84.432 Y89.369 E20.46722
G1 X82.887 Y90.463 E20.53018
G1 X82.527 Y90.702 E20.54455
G1 X80.92 Y91.697 E20.60742
G1 X80.547 Y91.912 E20.62174
G1 X78.769 Y92.867 E20.68887
G1 X78.376 Y93.063 E20.70347
G1 X76.656 Y93.852 E20.76641
G1 X76.267 Y94.016 E20.78045
G1 X74.5 Y94.701 E20.84349
G1 X74.096 Y94.843 E20.85773
G1 X72.292 Y95.418 E20.9207
